X:1
T:Title
%%score 1 { 2 | 3 }
L:1/8
Q:1/4=95
M:3/4
K:C
V:1 treble nm="Grand Piano, Unnamed-000"
V:2 bass nm="Choir Pad, Sailing, 87.87 D"
V:3 bass 
V:1
 G>G [Ec]3 [FA] | [EG]>[DF] [CE] [EG]3 | C>C [CA]3 [CA] | [Ac]>[Ac] [GB]4 | [FA]>[FB] [Ec]3 [Ec] | %5
w: By~Philip~Paul~Bliss,~1871 * * *|||||
 [Ge]>[Ec] [Fc] [FA]3 | [FA]>[FA] [EG]3 [EG] | [FB]>[Fd] [Ec]4 | [Gd]>[Gd] [Gd]3 [Gd] | %9
w: ||||
 [Gd]>[Ec] [Ge] [Ec]3 | [Ec]>[GB] [FA]3 [Fc] | [^Fd]>[Fe] [Gd]4 | G>G [Gc]3 [Gc] | %13
w: ||||
 [Ge]>[Ec] [Fc] [FA]3 | [FA]>[FA] [EG]3 [EG] | [FB]>[Fd] [Ec]4- | [Ec]4 z2 |] %17
w: ||||
V:2
 G,>G, G,3 C | C>[K:treble]C G, C3 | C>C C3 C | C>C G,4 | D>D C3 C | C>G, A, C3 | C>C C3 C | %7
 D>[K:bass]B, C4 | B,>B, B,3 B, | B,>[K:treble]C C G,3 | C>C C3[K:bass] A, | A,>C B,4 | %12
 G,>G,[K:treble] E3 E | C>G, A, C3 | C>C D3 D | D>B, C4- | C4 z2 |] %17
V:3
 z2 C,3 C, | C,>C, C, C,3 | C,>C, F,3 F, | F,>F, z2 z2 | G,>G, C,3 C, | C,>C, F, F,3 | %6
 F,>F, G,3 G, | G,>G, C,4 | G,>G, G,3 G, | G,>G, C, C,3 | C,>E, F,3 F, | D,>D, G,4 | z2 C,3 C, | %13
 C,>C, F, F,3 | F,>F, G,3 G, | G,>G, C,4- | C,4 z2 |] %17

